resources/images/cut_connectors.svg

<svg width="16" height="16" viewBox="0 0 16 16" fill="none" xmlns="http://www.w3.org/2000/svg">
<path d="M14.5 9.5H10.5V5.5C10.5 5.23478 10.3946 4.98043 10.2071 4.79289C10.0196 4.60536 9.76522 4.5 9.5 4.5H5.5C5.23478 4.5 4.98043 4.60536 4.79289 4.79289C4.60536 4.98043 4.5 5.23478 4.5 5.5V9.5H0.5" stroke="#FF7C3F" stroke-linecap="square" stroke-linejoin="round"/>
<path d="M14.5 11.5V13.5C14.5 13.7652 14.3946 14.0196 14.2071 14.2071C14.0196 14.3946 13.7652 14.5 13.5 14.5H1.5C1.23478 14.5 0.98043 14.3946 0.792893 14.2071C0.605357 14.0196 0.5 13.7652 0.5 13.5V11.5M14.5 7.5V1.5C14.5 1.23478 14.3946 0.98043 14.2071 0.792893C14.0196 0.605357 13.7652 0.5 13.5 0.5H1.5C1.23478 0.5 0.98043 0.605357 0.792893 0.792893C0.605357 0.98043 0.5 1.23478 0.5 1.5V7.5" stroke="#949494" stroke-linecap="square" stroke-linejoin="round"/>
</svg>

<svg xmlns="http://www.w3.org/2000/svg" width="16" height="16" viewBox="0 0 16 16"><path d="M14.5,9.5h-4v-4a1,1,0,0,0-1-1h-4a1,1,0,0,0-1,1v4H.5" style="fill:none;stroke:#009688;stroke-linecap:square;stroke-linejoin:round"/><path d="M14.5,11.5v2a1,1,0,0,1-1,1H1.5a1,1,0,0,1-1-1v-2m14-4v-6a1,1,0,0,0-1-1H1.5a1,1,0,0,0-1,1v6" style="fill:none;stroke:#949494;stroke-linecap:square;stroke-linejoin:round"/></svg>
